X: 12851
T: Fergus Óg's
R: jig
M: 6/8
K: Gmajor
M:12/8
|:d2B BAG AGB AGE|DE/F/G AGA BdB BAG|
F3 FED GAB c2A|1 BAF AFA G2A FED:|2 BAF AFA G3 G3||
K:Gm
|:D2G GAB AGF GFD|C3 C2F DCD F/=E/DC|
DGF G2B AGA c=Bc|1 d3c2A B2B AGF:|2 d3c2A B2B A=Bc||

